X:11642
T:NANTERRE DRO
R:HANTER DRO
C:Yves BELOTTEAU
Z: Yves BELOTTEAU
M:4/4
L:1/8
Q:1/4=120
K:C
% Last note suggests Phrygian mode tune
|AG/2A/2B3/2c/2 BBAG/2A/2|B3/2G/2E3/2 z/2 AG/2A/2B3/2c/2|BBAG/2 A<BG/2E3
/2 z/2 |EEcB/2A/2 B3/2 z/2 AA|
G3/2F/2E/2F/2G/2A/2 EEcB/2A/2|B3/2 z/2 AA G3/2F/2E/2F/2G/2A/2|E3/2|


